**kern	**silbe	**kern	**silbe	**harmony	**phrase	**leadinstrument	**rhyme	**timestamp	**harte
*ICvox	*	*ICvox	*	*M4/4	*	*	*	*	*M4/4
*VRlead	*	*VRharmonize	*	*	*	*	*	*	*
*Hstimme	*	*Nstimme	*	*	*	*	*	*	*
*G:	*	*G:	*	*G:	*	*	*	*	*G:
*M4/4	*	*M4/4	*	*	*	*	*	*	*
*clefG2	*	*clefG2	*	*	*	*	*	*	*
r;	.	r;	.	1r;	.	r	.	0	N.C.
=1	=1	=1	=1	=1	=1	=1	=1	=1	=1
*>Letter>A	*>Letter>A	*>Letter>A	*>Letter>A	*>Letter>A	*>Letter>A	*>Letter>A	*>Letter>A	*>Letter>A	*>Letter>A
*>Label>Intro	*>Label>Intro	*>Label>Intro	*>Label>Intro	*>Label>Intro	*>Label>Intro	*>Label>Intro	*>Label>Intro	*>Label>Intro	*>Label>Intro
1r	.	1r	.	1GM	newline	guitar	.	0.685	G:5
=2	=2	=2	=2	=2	=2	=2	=2	=2	=2
1r	.	1r	.	1GM	.	guitar	.	3.121	G:5
=3	=3	=3	=3	=3	=3	=3	=3	=3	=3
1r	.	1r	.	1GM	.	guitar	.	5.557	G:5
=4	=4	=4	=4	=4	=4	=4	=4	=4	=4
1r	.	1r	.	1GM	.	guitar	.	7.993	G:5
=5	=5	=5	=5	=5	=5	=5	=5	=5	=5
*>Letter>B	*>Letter>B	*>Letter>B	*>Letter>B	*>Letter>B	*>Letter>B	*>Letter>B	*>Letter>B	*>Letter>B	*>Letter>B
*>Label>Verse	*>Label>Verse	*>Label>Verse	*>Label>Verse	*>Label>Verse	*>Label>Verse	*>Label>Verse	*>Label>Verse	*>Label>Verse	*>Label>Verse
8d	Cold	1r	.	1GM	newline	voice	.	10.43	G:5
8a	late	.	.	.	.	.	.	.	.
8.a	night	.	.	.	.	.	.	.	.
16d	so	.	.	.	.	.	.	.	.
8d	long	.	.	.	.	.	A	.	.
16g	a-	.	.	.	.	.	.	.	.
8.g	-go	.	.	.	.	.	B	.	.
16r	.	.	.	.	.	.	.	.	.
16c	when	.	.	.	.	.	.	.	.
=6	=6	=6	=6	=6	=6	=6	=6	=6	=6
8d	I	1r	.	1GM	.	voice	.	12.831	G:5
16f	was	.	.	.	.	.	.	.	.
8f	not	.	.	.	.	.	.	.	.
8.f	so	.	.	.	.	.	.	.	.
8.d	strong	.	.	.	.	.	A	.	.
16G	you	.	.	.	.	.	.	.	.
8G	know	.	.	.	.	.	B	.	.
8r	.	.	.	.	.	.	.	.	.
=7	=7	=7	=7	=7	=7	=7	=7	=7	=7
16c	Pre-	1r	.	1FM	.	voice	.	15.232	F:maj
16c	-tty	.	.	.	.	.	.	.	.
8c	man	.	.	.	.	.	.	.	.
8c	came	.	.	.	.	.	.	.	.
4d	to	.	.	.	.	.	C	.	.
8c	me	.	.	.	.	.	.	.	.
8r	.	.	.	.	.	.	.	.	.
16c	Ne-	.	.	.	.	.	.	.	.
16c	-ver	.	.	.	.	.	.	.	.
=8	=8	=8	=8	=8	=8	=8	=8	=8	=8
8a	seen	1r	.	1FM	.	voice	.	17.634	F:maj
8g	eyes	.	.	.	.	.	.	.	.
8f	so	.	.	.	.	.	.	.	.
[4c	blue	.	.	.	.	.	C	.	.
16c]	_	.	.	.	.	.	.	.	.
16c	You	.	.	.	.	.	.	.	.
16c	know	.	.	.	.	.	.	.	.
8.c	I	.	.	.	.	.	.	.	.
=9	=9	=9	=9	=9	=9	=9	=9	=9	=9
8d	Could	1r	.	1GM	newline	voice	.	20.035	G:5
8a	not	.	.	.	.	.	.	.	.
8a	run	.	.	.	.	.	.	.	.
16d	a-	.	.	.	.	.	.	.	.
8d	-way	.	.	.	.	.	.	.	.
16g	it	.	.	.	.	.	.	.	.
4g	seemed	.	.	.	.	.	D	.	.
16r	.	.	.	.	.	.	.	.	.
16c	We'd	.	.	.	.	.	.	.	.
=10	=10	=10	=10	=10	=10	=10	=10	=10	=10
8d	seen	1r	.	1GM	.	voice	.	22.435	G:5
8f	each-	.	.	.	.	.	.	.	.
16f	-o-	.	.	.	.	.	.	.	.
8d	-ther	.	.	.	.	.	.	.	.
16d	in	.	.	.	.	.	.	.	.
8G	a	.	.	.	.	.	.	.	.
8G	dream	.	.	.	.	.	D	.	.
4r	.	.	.	.	.	.	.	.	.
=11	=11	=11	=11	=11	=11	=11	=11	=11	=11
8c	Seemed	1r	.	1FM	.	voice	.	24.834	F:maj
8c	like	.	.	.	.	.	.	.	.
8c	he	.	.	.	.	.	.	.	.
4d	knew	.	.	.	.	.	C	.	.
8c	me	.	.	.	.	.	.	.	.
8r	.	.	.	.	.	.	.	.	.
8c	he	.	.	.	.	.	.	.	.
=12	=12	=12	=12	=12	=12	=12	=12	=12	=12
8a	looked	1r	.	1FM	.	voice	.	27.234	F:maj
8g	right	.	.	.	.	.	.	.	.
8r	.	.	.	.	.	.	.	.	.
4f	through	.	.	.	.	.	C	.	.
8g	me	.	.	.	.	.	.	.	.
4a	_	.	.	.	.	.	.	.	.
=13	=13	=13	=13	=13	=13	=13	=13	=13	=13
*>Letter>A	*>Letter>A	*>Letter>A	*>Letter>A	*>Letter>A	*>Letter>A	*>Letter>A	*>Letter>A	*>Letter>A	*>Letter>A
*>Label>Trans	*>Label>Trans	*>Label>Trans	*>Label>Trans	*>Label>Trans	*>Label>Trans	*>Label>Trans	*>Label>Trans	*>Label>Trans	*>Label>Trans
4r	.	1r	.	1GM	newline	guitar	.	29.634	G:5
16d	Yeah	.	.	.	.	.	.	.	.
8c#	_	.	.	.	.	.	.	.	.
8.d	_	.	.	.	.	.	.	.	.
8r	.	.	.	.	.	.	.	.	.
4r	.	.	.	.	.	.	.	.	.
=14	=14	=14	=14	=14	=14	=14	=14	=14	=14
1r	.	1r	.	1GM	.	guitar	.	31.957	G:5
=15	=15	=15	=15	=15	=15	=15	=15	=15	=15
*>Letter>C	*>Letter>C	*>Letter>C	*>Letter>C	*>Letter>C	*>Letter>C	*>Letter>C	*>Letter>C	*>Letter>C	*>Letter>C
*>Label>Chorus	*>Label>Chorus	*>Label>Chorus	*>Label>Chorus	*>Label>Chorus	*>Label>Chorus	*>Label>Chorus	*>Label>Chorus	*>Label>Chorus	*>Label>Chorus
8cc	Come	1r	.	2B-M	newline	voice	.	34.28	B-:maj
8cc	on	.	.	.	.	.	.	.	.
8dd	_	.	.	.	.	.	.	.	.
4a	home	.	.	.	.	.	.	.	.
.	.	.	.	2FM	.	voice	.	35.47	F:maj
16a	girl	.	.	.	.	.	.	.	.
16g	_	.	.	.	.	.	.	.	.
8f	_	.	.	.	.	.	.	.	.
8g	he	.	.	.	.	.	.	.	.
=16	=16	=16	=16	=16	=16	=16	=16	=16	=16
8d	said	1r	.	1GM	.	voice	.	36.66	G:5
16d	with	.	.	.	.	.	.	.	.
8.c	a	.	.	.	.	.	.	.	.
4.d	smile	.	.	.	.	.	E	.	.
4r	.	.	.	.	.	.	.	.	.
=17	=17	=17	=17	=17	=17	=17	=17	=17	=17
16cc	You	1r	.	2B-M	.	voice	.	39.04	B-:maj
8.cc	don't	.	.	.	.	.	.	.	.
8cc	have	.	.	.	.	.	.	.	.
16dd	to	.	.	.	.	.	.	.	.
8.a	love	.	.	.	.	.	.	.	.
.	.	.	.	2FM	.	voice	.	40.231	F:maj
8g	me	.	.	.	.	.	.	.	.
8f	yet	.	.	.	.	.	.	.	.
[8g	let's	.	.	.	.	.	.	.	.
=18	=18	=18	=18	=18	=18	=18	=18	=18	=18
16g]	_	1r	.	1GM	.	voice	.	41.421	G:5
16c	get	.	.	.	.	.	.	.	.
16d	high	.	.	.	.	.	.	.	.
8.c	a	.	.	.	.	.	.	.	.
16d	while	.	.	.	.	.	E	.	.
8.f	_	.	.	.	.	.	.	.	.
8r	.	.	.	.	.	.	.	.	.
8r	.	.	.	.	.	.	.	.	.
8c	But	.	.	.	.	.	.	.	.
=19	=19	=19	=19	=19	=19	=19	=19	=19	=19
16cc	try	1r	.	1FM	newline	voice	.	43.801	F:maj
8b-	to	.	.	.	.	.	.	.	.
16a	un-	.	.	.	.	.	.	.	.
8g	-der-	.	.	.	.	.	.	.	.
16a	-stand	.	.	.	.	.	.	.	.
16g	_	.	.	.	.	.	.	.	.
4f	_	.	.	.	.	.	.	.	.
8r	.	.	.	.	.	.	.	.	.
[8dd	try	.	.	.	.	.	.	.	.
=20	=20	=20	=20	=20	=20	=20	=20	=20	=20
8dd]	_	1r	.	1GM	.	voice	.	46.158	G:maj
16cc	to	.	.	.	.	.	.	.	.
16b	un-	.	.	.	.	.	.	.	.
8a	-der-	.	.	.	.	.	.	.	.
16b	-stand	.	.	.	.	.	.	.	.
16a	_	.	.	.	.	.	.	.	.
4.g	_	.	.	.	.	.	.	.	.
8r	.	.	.	.	.	.	.	.	.
=21	=21	=21	=21	=21	=21	=21	=21	=21	=21
4cc	Try	1r	.	1B-M	.	voice	.	48.515	B-:maj
16cc	try	.	.	.	.	.	.	.	.
8.dd	_	.	.	.	.	.	.	.	.
32a	try	.	.	.	.	.	.	.	.
32g	_	.	.	.	.	.	.	.	.
8f	_	.	.	.	.	.	.	.	.
16f	to	.	.	.	.	.	.	.	.
8g	un-	.	.	.	.	.	.	.	.
8g	-der-	.	.	.	.	.	.	.	.
=22	=22	=22	=22	=22	=22	=22	=22	=22	=22
2g	-stand	1r	.	1CM	.	voice	F	50.872	C:maj
8r	.	.	.	.	.	.	.	.	.
16c	I'm	.	.	.	.	.	.	.	.
16c	a	.	.	.	.	.	.	.	.
8d	ma-	.	.	.	.	.	.	.	.
8c	-gic	.	.	.	.	.	.	.	.
=23	=23	=23	=23	=23	=23	=23	=23	=23	=23
*>Letter>A	*>Letter>A	*>Letter>A	*>Letter>A	*>Letter>A	*>Letter>A	*>Letter>A	*>Letter>A	*>Letter>A	*>Letter>A
*>Label>Trans	*>Label>Trans	*>Label>Trans	*>Label>Trans	*>Label>Trans	*>Label>Trans	*>Label>Trans	*>Label>Trans	*>Label>Trans	*>Label>Trans
4B-	man	1r	.	1GM	newline	guitar	F	53.229	G:5
4r	.	.	.	.	.	.	.	.	.
2r	.	.	.	.	.	.	.	.	.
=24	=24	=24	=24	=24	=24	=24	=24	=24	=24
1r	.	1r	.	1GM	.	guitar	.	55.618	G:5
=25	=25	=25	=25	=25	=25	=25	=25	=25	=25
*>Letter>B	*>Letter>B	*>Letter>B	*>Letter>B	*>Letter>B	*>Letter>B	*>Letter>B	*>Letter>B	*>Letter>B	*>Letter>B
*>Label>Verse	*>Label>Verse	*>Label>Verse	*>Label>Verse	*>Label>Verse	*>Label>Verse	*>Label>Verse	*>Label>Verse	*>Label>Verse	*>Label>Verse
8d	Win-	1r	.	1GM	newline	voice	.	58.007	G:5
8a	-ter	.	.	.	.	.	.	.	.
8.a	nights	.	.	.	.	.	.	.	.
16d	we	.	.	.	.	.	.	.	.
8d	sang	.	.	.	.	.	.	.	.
8g	in	.	.	.	.	.	.	.	.
4g	tune	.	.	.	.	.	G	.	.
=26	=26	=26	=26	=26	=26	=26	=26	=26	=26
8d	Played	1r	.	1GM	.	voice	.	60.382	G:5
8f	in-	.	.	.	.	.	.	.	.
8.f	-side	.	.	.	.	.	.	.	.
16d	the	.	.	.	.	.	.	.	.
8.d	moths	.	.	.	.	.	.	.	.
16G	of	.	.	.	.	.	.	.	.
8G	moon	.	.	.	.	.	G	.	.
8r	.	.	.	.	.	.	.	.	.
=27	=27	=27	=27	=27	=27	=27	=27	=27	=27
16c	Ne-	1r	.	1FM	.	voice	.	62.758	F:maj
16c	-ver	.	.	.	.	.	.	.	.
8c	think	.	.	.	.	.	.	.	.
8c	of	.	.	.	.	.	.	.	.
4d	ne-	.	.	.	.	.	(H	.	.
8c	-ver	.	.	.	.	.	h)	.	.
16r	.	.	.	.	.	.	.	.	.
8c	Let	.	.	.	.	.	.	.	.
[16c	this	.	.	.	.	.	.	.	.
=28	=28	=28	=28	=28	=28	=28	=28	=28	=28
8c]	_	1r	.	1FM	.	voice	.	65.133	F:maj
8a	spell	.	.	.	.	.	.	.	.
8g	last	.	.	.	.	.	.	.	.
8f	for-	.	.	.	.	.	.	.	.
16c	-e-	.	.	.	.	.	(H	.	.
16c	-ver	.	.	.	.	.	h)	.	.
8r	.	.	.	.	.	.	.	.	.
8r	.	.	.	.	.	.	.	.	.
8c	Well	.	.	.	.	.	.	.	.
=29	=29	=29	=29	=29	=29	=29	=29	=29	=29
16d	sum-	1r	.	1GM	newline	voice	.	67.508	G:5
8a	-mer	.	.	.	.	.	.	.	.
16a	lo-	.	.	.	.	.	.	.	.
8d	-ver	.	.	.	.	.	.	.	.
8d	passed	.	.	.	.	.	.	.	.
16d	to	.	.	.	.	.	.	.	.
8.g	fall	.	.	.	.	.	I	.	.
8r	.	.	.	.	.	.	.	.	.
[8d	Tried	.	.	.	.	.	.	.	.
=30	=30	=30	=30	=30	=30	=30	=30	=30	=30
8d]	_	1r	.	1GM	.	voice	.	69.889	G:5
8f	to	.	.	.	.	.	.	.	.
16f	re-	.	.	.	.	.	.	.	.
16d	-a-	.	.	.	.	.	.	.	.
4d	-lize	.	.	.	.	.	.	.	.
16G	it	.	.	.	.	.	.	.	.
8.G	all	.	.	.	.	.	I	.	.
8r	.	.	.	.	.	.	.	.	.
=31	=31	=31	=31	=31	=31	=31	=31	=31	=31
16c	Ma-	1r	.	1FM	.	voice	.	72.269	F:maj
16c	-ma	.	.	.	.	.	.	.	.
8c	says	.	.	.	.	.	.	.	.
8c	she's	.	.	.	.	.	.	.	.
4d	wor-	.	.	.	.	.	(J	.	.
8c	-ried	.	.	.	.	.	j)	.	.
8r	.	.	.	.	.	.	.	.	.
16c	Grow-	.	.	.	.	.	.	.	.
16c	-ing	.	.	.	.	.	.	.	.
=32	=32	=32	=32	=32	=32	=32	=32	=32	=32
8a	up	1r	.	1FM	.	voice	.	74.649	F:maj
8g	in	.	.	.	.	.	.	.	.
8f	a	.	.	.	.	.	.	.	.
4f	hur-	.	.	.	.	.	(J	.	.
8g	_	.	.	.	.	.	.	.	.
4a	-ry	.	.	.	.	.	j)	.	.
=33	=33	=33	=33	=33	=33	=33	=33	=33	=33
*>Letter>A	*>Letter>A	*>Letter>A	*>Letter>A	*>Letter>A	*>Letter>A	*>Letter>A	*>Letter>A	*>Letter>A	*>Letter>A
*>Label>Trans	*>Label>Trans	*>Label>Trans	*>Label>Trans	*>Label>Trans	*>Label>Trans	*>Label>Trans	*>Label>Trans	*>Label>Trans	*>Label>Trans
8r	.	1r	.	1GM	newline	guitar	.	77.03	G:5
16d	Yeah	.	.	.	.	.	.	.	.
8.c	_	.	.	.	.	.	.	.	.
8d	_	.	.	.	.	.	.	.	.
2r	.	.	.	.	.	.	.	.	.
=34	=34	=34	=34	=34	=34	=34	=34	=34	=34
1r	.	1r	.	1GM	.	guitar	.	79.383	G:5
=35	=35	=35	=35	=35	=35	=35	=35	=35	=35
*>Letter>C	*>Letter>C	*>Letter>C	*>Letter>C	*>Letter>C	*>Letter>C	*>Letter>C	*>Letter>C	*>Letter>C	*>Letter>C
*>Label>Chorus	*>Label>Chorus	*>Label>Chorus	*>Label>Chorus	*>Label>Chorus	*>Label>Chorus	*>Label>Chorus	*>Label>Chorus	*>Label>Chorus	*>Label>Chorus
8cc	Come	1r	.	2B-M	newline	voice	.	81.736	B-:maj
8cc	on	.	.	.	.	.	.	.	.
8dd	_	.	.	.	.	.	.	.	.
4a	home	.	.	.	.	.	.	.	.
.	.	.	.	2FM	.	voice	.	82.921	F:maj
16a	girl	.	.	.	.	.	.	.	.
16g	_	.	.	.	.	.	.	.	.
8f	_	.	.	.	.	.	.	.	.
16g	ma-	.	.	.	.	.	.	.	.
16g	-ma	.	.	.	.	.	.	.	.
=36	=36	=36	=36	=36	=36	=36	=36	=36	=36
8r	.	1r	.	1GM	.	voice	.	84.106	G:5
8d	cried	.	.	.	.	.	.	.	.
16d	on	.	.	.	.	.	.	.	.
16c	the	.	.	.	.	.	.	.	.
4.d	phone	.	.	.	.	.	K	.	.
8r	.	.	.	.	.	.	.	.	.
8d	To	.	.	.	.	.	.	.	.
=37	=37	=37	=37	=37	=37	=37	=37	=37	=37
8cc	soon	1r	.	2B-M	.	voice	.	86.476	B-:maj
16cc	to	.	.	.	.	.	.	.	.
8.cc	lose	.	.	.	.	.	.	.	.
8dd	my	.	.	.	.	.	.	.	.
8a	ba-	.	.	2FM	.	voice	.	87.661	F:maj
8g	-by	.	.	.	.	.	.	.	.
8f	and	.	.	.	.	.	.	.	.
8g	my	.	.	.	.	.	.	.	.
=38	=38	=38	=38	=38	=38	=38	=38	=38	=38
8.d	girl	1r	.	1GM	.	voice	.	88.846	G:5
16d	should	.	.	.	.	.	.	.	.
16d	be	.	.	.	.	.	.	.	.
16c	at	.	.	.	.	.	.	.	.
16d	home	.	.	.	.	.	K	.	.
8.f	_	.	.	.	.	.	.	.	.
8r	.	.	.	.	.	.	.	.	.
8r	.	.	.	.	.	.	.	.	.
8c	But	.	.	.	.	.	.	.	.
=39	=39	=39	=39	=39	=39	=39	=39	=39	=39
16cc	try	1r	.	1FM	newline	voice	.	91.216	F:maj
8b-	to	.	.	.	.	.	.	.	.
16a	un-	.	.	.	.	.	.	.	.
8g	-der-	.	.	.	.	.	.	.	.
8a	-stand	.	.	.	.	.	.	.	.
8a	_	.	.	.	.	.	.	.	.
8r	.	.	.	.	.	.	.	.	.
8r	.	.	.	.	.	.	.	.	.
[8dd	try	.	.	.	.	.	.	.	.
=40	=40	=40	=40	=40	=40	=40	=40	=40	=40
8dd]	_	1r	.	1GM	.	voice	.	93.54	G:maj
16cc	to	.	.	.	.	.	.	.	.
16b	un-	.	.	.	.	.	.	.	.
8a	-der-	.	.	.	.	.	.	.	.
16b	-stand	.	.	.	.	.	.	.	.
16a	_	.	.	.	.	.	.	.	.
4.g	_	.	.	.	.	.	.	.	.
8r	.	.	.	.	.	.	.	.	.
=41	=41	=41	=41	=41	=41	=41	=41	=41	=41
4cc	Try	1r	.	1B-M	.	voice	.	95.864	B-:maj
16cc	try	.	.	.	.	.	.	.	.
8.dd	_	.	.	.	.	.	.	.	.
32a	try	.	.	.	.	.	.	.	.
32g	_	.	.	.	.	.	.	.	.
8f	_	.	.	.	.	.	.	.	.
16f	to	.	.	.	.	.	.	.	.
8g	un-	.	.	.	.	.	.	.	.
8g	-der-	.	.	.	.	.	.	.	.
=42	=42	=42	=42	=42	=42	=42	=42	=42	=42
2g	-stand	1r	.	1CM	.	voice	F	98.187	C:maj
8r	.	.	.	.	.	.	.	.	.
16c	He's	.	.	.	.	.	.	.	.
16c	a	.	.	.	.	.	.	.	.
8d	ma-	.	.	.	.	.	.	.	.
8c	-gic	.	.	.	.	.	.	.	.
=43	=43	=43	=43	=43	=43	=43	=43	=43	=43
*>Letter>A	*>Letter>A	*>Letter>A	*>Letter>A	*>Letter>A	*>Letter>A	*>Letter>A	*>Letter>A	*>Letter>A	*>Letter>A
*>Label>Interlude	*>Label>Interlude	*>Label>Interlude	*>Label>Interlude	*>Label>Interlude	*>Label>Interlude	*>Label>Interlude	*>Label>Interlude	*>Label>Interlude	*>Label>Interlude
4B-	man	1r	.	1GM	newline	guitar	F	100.511	G:5
8G	ma-	.	.	.	.	.	.	.	.
8G	-ma	.	.	.	.	.	.	.	.
4r	.	.	.	.	.	.	.	.	.
[4g	Ah	.	.	.	.	.	.	.	.
=44	=44	=44	=44	=44	=44	=44	=44	=44	=44
2g]	_	1r	.	1GM	.	guitar	.	102.854	G:5
16r	.	.	.	.	.	.	.	.	.
16c	He's	.	.	.	.	.	.	.	.
16c	a	.	.	.	.	.	.	.	.
8.d	ma-	.	.	.	.	.	.	.	.
8c	-gic	.	.	.	.	.	.	.	.
=45	=45	=45	=45	=45	=45	=45	=45	=45	=45
16B-	man	1r	.	1GM	.	guitar	F	105.197	G:5
8.G	_	.	.	.	.	.	.	.	.
4r	.	.	.	.	.	.	.	.	.
2r	.	.	.	.	.	.	.	.	.
=46	=46	=46	=46	=46	=46	=46	=46	=46	=46
1r	.	1r	.	1GM	.	guitar	.	107.539	G:5
=47	=47	=47	=47	=47	=47	=47	=47	=47	=47
1r	.	1r	.	1GM	newline	guitar	.	109.882	G:5
=48	=48	=48	=48	=48	=48	=48	=48	=48	=48
1r	.	1r	.	1GM	.	guitar	.	112.241	G:5
=49	=49	=49	=49	=49	=49	=49	=49	=49	=49
1r	.	1r	.	1GM	.	guitar	.	114.601	G:5
=50	=50	=50	=50	=50	=50	=50	=50	=50	=50
1r	.	1r	.	1GM	.	guitar	.	116.961	G:5
=51	=51	=51	=51	=51	=51	=51	=51	=51	=51
*>Letter>C	*>Letter>C	*>Letter>C	*>Letter>C	*>Letter>C	*>Letter>C	*>Letter>C	*>Letter>C	*>Letter>C	*>Letter>C
*>Label>Chorus	*>Label>Chorus	*>Label>Chorus	*>Label>Chorus	*>Label>Chorus	*>Label>Chorus	*>Label>Chorus	*>Label>Chorus	*>Label>Chorus	*>Label>Chorus
8cc	Come	1r	.	2B-M	newline	voice	.	119.32	B-:maj
8cc	on	.	.	.	.	.	.	.	.
8dd	_	.	.	.	.	.	.	.	.
4a	home	.	.	.	.	.	.	.	.
.	.	.	.	2FM	.	voice	.	120.483	F:maj
16a	girl	.	.	.	.	.	.	.	.
16g	_	.	.	.	.	.	.	.	.
8f	_	.	.	.	.	.	.	.	.
8g	he	.	.	.	.	.	.	.	.
=52	=52	=52	=52	=52	=52	=52	=52	=52	=52
8d	said	1r	.	1GM	.	voice	.	121.646	G:5
16d	with	.	.	.	.	.	.	.	.
8.c	a	.	.	.	.	.	.	.	.
4.d	smile	.	.	.	.	.	E	.	.
8r	.	.	.	.	.	.	.	.	.
8d	I	.	.	.	.	.	.	.	.
=53	=53	=53	=53	=53	=53	=53	=53	=53	=53
8cc	cast	1r	.	2B-M	.	voice	.	123.972	B-:maj
8cc	my	.	.	.	.	.	.	.	.
16cc	spell	.	.	.	.	.	.	.	.
16dd	of	.	.	.	.	.	.	.	.
4a	love	.	.	.	.	.	.	.	.
.	.	.	.	2FM	.	voice	.	125.135	F:maj
8g	on	.	.	.	.	.	.	.	.
8f	you	.	.	.	.	.	.	.	.
8g	a	.	.	.	.	.	.	.	.
=54	=54	=54	=54	=54	=54	=54	=54	=54	=54
16d	wo-	1r	.	1GM	.	voice	.	126.298	G:5
8.d	-man	.	.	.	.	.	.	.	.
16d	from	.	.	.	.	.	.	.	.
8c	a	.	.	.	.	.	.	.	.
16d	child	.	.	.	.	.	E	.	.
8f	_	.	.	.	.	.	.	.	.
8r	.	.	.	.	.	.	.	.	.
8r	.	.	.	.	.	.	.	.	.
8c	But	.	.	.	.	.	.	.	.
=55	=55	=55	=55	=55	=55	=55	=55	=55	=55
16cc	try	1r	.	1FM	newline	voice	.	128.624	F:maj
8b-	to	.	.	.	.	.	.	.	.
16a	un-	.	.	.	.	.	.	.	.
8g	-der-	.	.	.	.	.	.	.	.
16a	-stand	.	.	.	.	.	.	.	.
16g	_	.	.	.	.	.	.	.	.
4f	_	.	.	.	.	.	.	.	.
8r	.	.	.	.	.	.	.	.	.
[8dd	try	.	.	.	.	.	.	.	.
=56	=56	=56	=56	=56	=56	=56	=56	=56	=56
8dd]	_	1r	.	1GM	.	voice	.	130.948	G:maj
16cc	to	.	.	.	.	.	.	.	.
16b	un-	.	.	.	.	.	.	.	.
8a	-der-	.	.	.	.	.	.	.	.
16b	-stand	.	.	.	.	.	.	.	.
16a	_	.	.	.	.	.	.	.	.
4g	_	.	.	.	.	.	.	.	.
4r	.	.	.	.	.	.	.	.	.
=57	=57	=57	=57	=57	=57	=57	=57	=57	=57
2.b	Oh	1r	.	1E-M	.	voice	.	133.271	E-:maj
8r	.	.	.	.	.	.	.	.	.
[8dd	Oh	.	.	.	.	.	.	.	.
=58	=58	=58	=58	=58	=58	=58	=58	=58	=58
4.dd]	_	1r	.	1Em	.	voice	.	135.595	E:min
8b	oh	.	.	.	.	.	.	.	.
8a	_	.	.	.	.	.	.	.	.
4g	_	.	.	.	.	.	.	.	.
8r	.	.	.	.	.	.	.	.	.
=59	=59	=59	=59	=59	=59	=59	=59	=59	=59
4.cc	Try	1r	.	1FM	newline	voice	.	137.918	F:maj
8dd	_	.	.	.	.	.	.	.	.
16a	_	.	.	.	.	.	.	.	.
16g	_	.	.	.	.	.	.	.	.
4f	_	.	.	.	.	.	.	.	.
[8dd	try	.	.	.	.	.	.	.	.
=60	=60	=60	=60	=60	=60	=60	=60	=60	=60
16dd]	_	1r	.	1GM	.	voice	.	140.243	G:maj
16dd	_	.	.	.	.	.	.	.	.
16cc	to	.	.	.	.	.	.	.	.
16b	un-	.	.	.	.	.	.	.	.
8a	-der-	.	.	.	.	.	.	.	.
16b	-stand	.	.	.	.	.	.	.	.
16a	_	.	.	.	.	.	.	.	.
4g	_	.	.	.	.	.	.	.	.
4r	.	.	.	.	.	.	.	.	.
=61	=61	=61	=61	=61	=61	=61	=61	=61	=61
4cc	Try	1r	.	1B-M	.	voice	.	142.567	B-:maj
16cc	try	.	.	.	.	.	.	.	.
8.dd	_	.	.	.	.	.	.	.	.
32a	try	.	.	.	.	.	.	.	.
32g	_	.	.	.	.	.	.	.	.
8f	_	.	.	.	.	.	.	.	.
16f	to	.	.	.	.	.	.	.	.
8g	un-	.	.	.	.	.	.	.	.
8g	-der-	.	.	.	.	.	.	.	.
=62	=62	=62	=62	=62	=62	=62	=62	=62	=62
2g	-stand	1r	.	1CM	.	voice	F	144.891	C:maj
8r	.	.	.	.	.	.	.	.	.
16g	He's	.	.	.	.	.	.	.	.
16g	a	.	.	.	.	.	.	.	.
[4b-	ma-	.	.	.	.	.	.	.	.
=63	=63	=63	=63	=63	=63	=63	=63	=63	=63
*>Letter>D	*>Letter>D	*>Letter>D	*>Letter>D	*>Letter>D	*>Letter>D	*>Letter>D	*>Letter>D	*>Letter>D	*>Letter>D
*>Label>Solo	*>Label>Solo	*>Label>Solo	*>Label>Solo	*>Label>Solo	*>Label>Solo	*>Label>Solo	*>Label>Solo	*>Label>Solo	*>Label>Solo
4.b-]	_	1r	.	1GM	newline	voice	.	147.215	G:5
8cc	-gic	.	.	.	.	.	.	.	.
16g	man	.	.	.	.	.	F	.	.
[4..f	_	.	.	.	.	.	.	.	.
=64	=64	=64	=64	=64	=64	=64	=64	=64	=64
2f]	_	[1g	Ooh	2GM	.	voice	.	149.48	G:5
16g	Oh	.	.	2FM	.	voice	.	150.612	F:5
16f	_	.	.	.	.	.	.	.	.
8d-	_	.	.	.	.	.	.	.	.
4c	_	.	.	.	.	.	.	.	.
=65	=65	=65	=65	=65	=65	=65	=65	=65	=65
16B-	yeah	1g_	_	1GM	.	voice	.	151.744	G:5
8.G	_	.	.	.	.	.	.	.	.
4r	.	.	.	.	.	.	.	.	.
2r	.	.	.	.	.	.	.	.	.
=66	=66	=66	=66	=66	=66	=66	=66	=66	=66
1r	.	4.g]	_	2GM	.	voice	.	154.009	G:5
.	.	8g	you	.	.	.	.	.	.
.	.	8g	got	2FM	.	voice	.	155.141	F:5
.	.	16d-	the	.	.	.	.	.	.
.	.	8.d-	ma-	.	.	.	.	.	.
.	.	8c	-gic	.	.	.	.	.	.
=67	=67	=67	=67	=67	=67	=67	=67	=67	=67
1r	.	16B-	hands	1GM	newline	guitar	.	156.273	G:5
.	.	4..G	_	.	.	.	.	.	.
.	.	2r	.	.	.	.	.	.	.
=68	=68	=68	=68	=68	=68	=68	=68	=68	=68
1r	.	1r	.	2GM	.	guitar	.	158.533	G:5
.	.	.	.	2FM	.	guitar	.	159.663	F:5
=69	=69	=69	=69	=69	=69	=69	=69	=69	=69
1r	.	1r	.	1GM	.	guitar	.	160.793	G:5
=70	=70	=70	=70	=70	=70	=70	=70	=70	=70
1r	.	1r	.	2GM	.	guitar	.	163.053	G:5
.	.	.	.	2FM	.	guitar	.	164.183	F:5
=71	=71	=71	=71	=71	=71	=71	=71	=71	=71
1r	.	1r	.	1GM	newline	guitar	.	165.313	G:5
=72	=72	=72	=72	=72	=72	=72	=72	=72	=72
1r	.	1r	.	2GM	.	guitar	.	167.581	G:5
.	.	.	.	2FM	.	guitar	.	168.715	F:5
=73	=73	=73	=73	=73	=73	=73	=73	=73	=73
1r	.	1r	.	1GM	.	guitar	.	169.849	G:5
=74	=74	=74	=74	=74	=74	=74	=74	=74	=74
1r	.	1r	.	2GM	.	guitar	.	172.118	G:5
.	.	.	.	2FM	.	guitar	.	173.252	F:5
=75	=75	=75	=75	=75	=75	=75	=75	=75	=75
1r	.	1r	.	1GM	newline	guitar	.	174.386	G:5
=76	=76	=76	=76	=76	=76	=76	=76	=76	=76
1r	.	1r	.	2GM	.	guitar	.	176.661	G:5
.	.	.	.	2FM	.	guitar	.	177.799	F:5
=77	=77	=77	=77	=77	=77	=77	=77	=77	=77
1r	.	1r	.	1GM	.	guitar	.	178.937	G:5
=78	=78	=78	=78	=78	=78	=78	=78	=78	=78
1r	.	1r	.	2GM	.	guitar	.	181.213	G:5
.	.	.	.	2FM	.	guitar	.	182.35	F:5
=79	=79	=79	=79	=79	=79	=79	=79	=79	=79
1r	.	1r	.	1GM	newline	guitar	.	183.488	G:5
=80	=80	=80	=80	=80	=80	=80	=80	=80	=80
1r	.	1r	.	2GM	.	guitar	.	185.735	G:5
.	.	.	.	2FM	.	guitar	.	186.858	F:5
=81	=81	=81	=81	=81	=81	=81	=81	=81	=81
*M2/4	*	*M2/4	*	*M2/4	*M2/4	*M2/4	*	*M2/4	*M2/4
2r	.	2r	.	2GM	.	guitar	.	187.981	G:5
=82	=82	=82	=82	=82	=82	=82	=82	=82	=82
*>Letter>D	*>Letter>D	*>Letter>D	*>Letter>D	*>Letter>D	*>Letter>D	*>Letter>D	*>Letter>D	*>Letter>D	*>Letter>D
*>Label>Solo	*>Label>Solo	*>Label>Solo	*>Label>Solo	*>Label>Solo	*>Label>Solo	*>Label>Solo	*>Label>Solo	*>Label>Solo	*>Label>Solo
*	*	*	*	*M4/4	*M4/4	*M4/4	*	*M4/4	*M4/4
1r	.	1r	.	1GM	newline	guitar	.	189.105	G:5
=83	=83	=83	=83	=83	=83	=83	=83	=83	=83
1r	.	1r	.	2GM	.	guitar	.	191.364	G:5
.	.	.	.	2FM	.	guitar	.	192.494	F:5
=84	=84	=84	=84	=84	=84	=84	=84	=84	=84
1r	.	1r	.	1GM	.	guitar	.	193.624	G:5
=85	=85	=85	=85	=85	=85	=85	=85	=85	=85
1r	.	1r	.	2GM	.	guitar	.	195.884	G:5
.	.	.	.	2FM	.	guitar	.	197.013	F:5
=86	=86	=86	=86	=86	=86	=86	=86	=86	=86
1r	.	1r	.	1GM	newline	guitar	.	198.143	G:5
=87	=87	=87	=87	=87	=87	=87	=87	=87	=87
1r	.	1r	.	2GM	.	guitar	.	200.393	G:5
.	.	.	.	2FM	.	guitar	.	201.518	F:5
=88	=88	=88	=88	=88	=88	=88	=88	=88	=88
1r	.	1r	.	1GM	.	guitar	.	202.644	G:5
=89	=89	=89	=89	=89	=89	=89	=89	=89	=89
1r	.	1r	.	2GM	.	guitar	.	204.894	G:5
.	.	.	.	2FM	.	guitar	.	206.019	F:5
=90	=90	=90	=90	=90	=90	=90	=90	=90	=90
1r	.	1r	.	1GM	newline	guitar	.	207.144	G:5
=91	=91	=91	=91	=91	=91	=91	=91	=91	=91
1r	.	1r	.	2GM	.	guitar	.	.	G:5
.	.	.	.	2FM	.	guitar	.	.	F:5
=92	=92	=92	=92	=92	=92	=92	=92	=92	=92
1r	.	1r	.	1GM	.	guitar	.	.	G:5
=93	=93	=93	=93	=93	=93	=93	=93	=93	=93
1r	.	1r	.	2GM	.	guitar	.	.	G:5
.	.	.	.	2FM	.	guitar	.	.	F:5
=94	=94	=94	=94	=94	=94	=94	=94	=94	=94
1r	.	1r	.	1GM	newline	guitar	.	216.112	G:5
=95	=95	=95	=95	=95	=95	=95	=95	=95	=95
1r	.	1r	.	2GM	.	guitar	.	.	G:5
.	.	.	.	2FM	.	guitar	.	.	F:5
=96	=96	=96	=96	=96	=96	=96	=96	=96	=96
1r	.	1r	.	1GM	.	guitar	.	.	G:5
=97	=97	=97	=97	=97	=97	=97	=97	=97	=97
1r	.	1r	.	1N	.	guitar	.	.	N.C.
=98	=98	=98	=98	=98	=98	=98	=98	=98	=98
*M2/4	*	*M2/4	*	*M2/4	*M2/4	*M2/4	*	*M2/4	*M2/4
2r	.	2r	.	4FM	newline	guitar	.	225.153	F:5
.	.	.	.	4F#m	.	guitar	.	.	F#:5
=99	=99	=99	=99	=99	=99	=99	=99	=99	=99
*M4/4	*	*M4/4	*	*M4/4	*M4/4	*M4/4	*	*M4/4	*M4/4
1r	.	1r	.	1GM	.	guitar	.	.	G:5
=100	=100	=100	=100	=100	=100	=100	=100	=100	=100
1r	.	1r	.	1GM	.	guitar	.	.	G:5
=101	=101	=101	=101	=101	=101	=101	=101	=101	=101
*>Letter>D	*>Letter>D	*>Letter>D	*>Letter>D	*>Letter>D	*>Letter>D	*>Letter>D	*>Letter>D	*>Letter>D	*>Letter>D
*>Label>Solo	*>Label>Solo	*>Label>Solo	*>Label>Solo	*>Label>Solo	*>Label>Solo	*>Label>Solo	*>Label>Solo	*>Label>Solo	*>Label>Solo
1r	.	1r	.	1GM	newline	guitar	.	230.802	G:5
=102	=102	=102	=102	=102	=102	=102	=102	=102	=102
1r	.	1r	.	2N	.	guitar	.	.	N.C.
.	.	.	.	4FM	.	guitar	.	.	F:5
.	.	.	.	4F#m	.	guitar	.	.	F#:5
=103	=103	=103	=103	=103	=103	=103	=103	=103	=103
1r	.	1r	.	1GM	.	guitar	.	.	G:5
=104	=104	=104	=104	=104	=104	=104	=104	=104	=104
1r	.	1r	.	1N	.	guitar	.	.	N.C.
=105	=105	=105	=105	=105	=105	=105	=105	=105	=105
1r	.	1r	.	1GM	newline	synthesizer	.	239.88	G:5
=106	=106	=106	=106	=106	=106	=106	=106	=106	=106
1r	.	1r	.	2N	.	synthesizer	.	.	N.C.
.	.	.	.	4FM	.	synthesizer	.	.	F:5
.	.	.	.	4F#m	.	synthesizer	.	.	F#:5
=107	=107	=107	=107	=107	=107	=107	=107	=107	=107
1r	.	1r	.	1GM	.	synthesizer	.	.	G:5
=108	=108	=108	=108	=108	=108	=108	=108	=108	=108
1r	.	1r	.	1N	.	synthesizer	.	.	N.C.
=109	=109	=109	=109	=109	=109	=109	=109	=109	=109
[1a	Ah	1r	.	1GM	newline	synthesizer	.	248.946	G:5
=110	=110	=110	=110	=110	=110	=110	=110	=110	=110
2a]	_	1r	.	2GM	.	synthesizer	.	.	G:5
8a	Ah	.	.	2FM	.	synthesizer	.	.	F:5
8g	_	.	.	.	.	.	.	.	.
8f	_	.	.	.	.	.	.	.	.
[8g	_	.	.	.	.	.	.	.	.
=111	=111	=111	=111	=111	=111	=111	=111	=111	=111
4.g]	_	1r	.	1GM	.	synthesizer	.	.	G:5
[8f	_	.	.	.	.	.	.	.	.
2f]	_	.	.	.	.	.	.	.	.
=112	=112	=112	=112	=112	=112	=112	=112	=112	=112
1r	.	1r	.	2GM	.	synthesizer	.	.	G:5
.	.	.	.	2FM	.	synthesizer	.	.	F:5
=113	=113	=113	=113	=113	=113	=113	=113	=113	=113
[1a	Ah	1r	.	1GM	newline	synthesizer	.	257.842	G:5
=114	=114	=114	=114	=114	=114	=114	=114	=114	=114
2a]	_	1r	.	2GM	.	synthesizer	.	.	G:5
8a	Ah	.	.	2FM	.	synthesizer	.	.	F:5
8g	_	.	.	.	.	.	.	.	.
8f	_	.	.	.	.	.	.	.	.
[8g	_	.	.	.	.	.	.	.	.
=115	=115	=115	=115	=115	=115	=115	=115	=115	=115
4.g]	_	1r	.	1GM	.	synthesizer	.	.	G:5
[8f	_	.	.	.	.	.	.	.	.
2f]	_	.	.	.	.	.	.	.	.
=116	=116	=116	=116	=116	=116	=116	=116	=116	=116
1r	.	1r	.	2GM	.	synthesizer	.	.	G:5
.	.	.	.	2FM	.	synthesizer	.	.	F:5
=117	=117	=117	=117	=117	=117	=117	=117	=117	=117
[1a	Ah	1r	.	1GM	newline	synthesizer	.	266.768	G:5
=118	=118	=118	=118	=118	=118	=118	=118	=118	=118
2a]	_	1r	.	2GM	.	synthesizer	.	.	G:5
8a	Ah	.	.	2FM	.	synthesizer	.	.	F:5
8g	_	.	.	.	.	.	.	.	.
8f	_	.	.	.	.	.	.	.	.
[8g	_	.	.	.	.	.	.	.	.
=119	=119	=119	=119	=119	=119	=119	=119	=119	=119
4.g]	_	1r	.	1GM	.	synthesizer	.	.	G:5
[8f	_	.	.	.	.	.	.	.	.
2f]	_	.	.	.	.	.	.	.	.
=120	=120	=120	=120	=120	=120	=120	=120	=120	=120
1r	.	1r	.	2GM	.	synthesizer	.	.	G:5
.	.	.	.	2FM	.	synthesizer	.	.	F:5
=121	=121	=121	=121	=121	=121	=121	=121	=121	=121
[1a	Ah	1r	.	1GM	newline	synthesizer	.	275.705	G:5
=122	=122	=122	=122	=122	=122	=122	=122	=122	=122
2a]	_	1r	.	2GM	.	synthesizer	.	.	G:5
8a	Ah	.	.	2FM	.	synthesizer	.	.	F:5
8g	_	.	.	.	.	.	.	.	.
8f	_	.	.	.	.	.	.	.	.
[8g	_	.	.	.	.	.	.	.	.
=123	=123	=123	=123	=123	=123	=123	=123	=123	=123
4.g]	_	1r	.	1GM	.	synthesizer	.	.	G:5
[8f	_	.	.	.	.	.	.	.	.
2f]	_	.	.	.	.	.	.	.	.
=124	=124	=124	=124	=124	=124	=124	=124	=124	=124
1r	.	1r	.	2GM	.	synthesizer	.	.	G:5
.	.	.	.	2FM	.	synthesizer	.	.	F:5
=125	=125	=125	=125	=125	=125	=125	=125	=125	=125
1r	.	1r	.	1GM	newline	synthesizer	.	284.684	G:5
=126	=126	=126	=126	=126	=126	=126	=126	=126	=126
1r	.	1r	.	2GM	.	synthesizer	.	.	G:5
.	.	.	.	2FM	.	synthesizer	.	.	F:5
=127	=127	=127	=127	=127	=127	=127	=127	=127	=127
*M2/4	*	*M2/4	*	*M2/4	*M2/4	*M2/4	*	*M2/4	*M2/4
2r	.	2r	.	2GM	.	synthesizer	.	.	G:5
=128	=128	=128	=128	=128	=128	=128	=128	=128	=128
*M4/4	*	*M4/4	*	*M4/4	*M4/4	*M4/4	*	*M4/4	*M4/4
1r	.	1r	.	1FM	newline	synthesizer	.	290.274	F:maj
=129	=129	=129	=129	=129	=129	=129	=129	=129	=129
1r	.	1r	.	1FM	.	synthesizer	.	.	F:maj
=130	=130	=130	=130	=130	=130	=130	=130	=130	=130
1r	.	1r	.	1FM	.	synthesizer	.	.	F:maj
=131	=131	=131	=131	=131	=131	=131	=131	=131	=131
1r	.	1r	.	1FM	.	synthesizer	.	.	F:maj
=132	=132	=132	=132	=132	=132	=132	=132	=132	=132
*>Letter>C2	*>Letter>C2	*>Letter>C2	*>Letter>C2	*>Letter>C2	*>Letter>C2	*>Letter>C2	*>Letter>C2	*>Letter>C2	*>Letter>C2
*>Label>Chorus	*>Label>Chorus	*>Label>Chorus	*>Label>Chorus	*>Label>Chorus	*>Label>Chorus	*>Label>Chorus	*>Label>Chorus	*>Label>Chorus	*>Label>Chorus
8cc	Come	1r	.	2B-M	newline	voice	.	299.449	B-:maj
8cc	on	.	.	.	.	.	.	.	.
8dd	_	.	.	.	.	.	.	.	.
4a	home	.	.	.	.	.	.	.	.
.	.	.	.	2FM	.	voice	.	.	F:maj
16a	girl	.	.	.	.	.	.	.	.
16g	_	.	.	.	.	.	.	.	.
8f	_	.	.	.	.	.	.	.	.
8g	he	.	.	.	.	.	.	.	.
=133	=133	=133	=133	=133	=133	=133	=133	=133	=133
8d	said	1r	.	1GM	.	voice	.	.	G:5
16d	with	.	.	.	.	.	.	.	.
8.c	a	.	.	.	.	.	.	.	.
4.d	smile	.	.	.	.	.	E	.	.
4r	.	.	.	.	.	.	.	.	.
=134	=134	=134	=134	=134	=134	=134	=134	=134	=134
16cc	You	1r	.	2B-M	.	voice	.	.	B-:maj
8.cc	don't	.	.	.	.	.	.	.	.
8cc	have	.	.	.	.	.	.	.	.
16dd	to	.	.	.	.	.	.	.	.
8.a	love	.	.	.	.	.	.	.	.
.	.	.	.	2FM	.	voice	.	.	F:maj
8g	me	.	.	.	.	.	.	.	.
8f	yet	.	.	.	.	.	.	.	.
[8g	let's	.	.	.	.	.	.	.	.
=135	=135	=135	=135	=135	=135	=135	=135	=135	=135
16g]	_	1r	.	1GM	.	voice	.	.	G:5
16c	get	.	.	.	.	.	.	.	.
16d	high	.	.	.	.	.	.	.	.
8.c	a	.	.	.	.	.	.	.	.
16d	while	.	.	.	.	.	E	.	.
8.f	_	.	.	.	.	.	.	.	.
8r	.	.	.	.	.	.	.	.	.
8r	.	.	.	.	.	.	.	.	.
8c	But	.	.	.	.	.	.	.	.
=136	=136	=136	=136	=136	=136	=136	=136	=136	=136
16cc	try	1r	.	1FM	newline	voice	.	308.67	F:maj
8b-	to	.	.	.	.	.	.	.	.
16a	un-	.	.	.	.	.	.	.	.
8g	-der-	.	.	.	.	.	.	.	.
16a	-stand	.	.	.	.	.	.	.	.
16g	_	.	.	.	.	.	.	.	.
4f	_	.	.	.	.	.	.	.	.
8r	.	.	.	.	.	.	.	.	.
[8dd	try	.	.	.	.	.	.	.	.
=137	=137	=137	=137	=137	=137	=137	=137	=137	=137
8dd]	_	1r	.	1GM	.	voice	.	.	G:maj
16cc	to	.	.	.	.	.	.	.	.
16b	un-	.	.	.	.	.	.	.	.
8a	-der-	.	.	.	.	.	.	.	.
16b	-stand	.	.	.	.	.	.	.	.
16a	_	.	.	.	.	.	.	.	.
4.g	_	.	.	.	.	.	.	.	.
8r	.	.	.	.	.	.	.	.	.
=138	=138	=138	=138	=138	=138	=138	=138	=138	=138
4cc	Try	1r	.	1B-M	.	voice	.	.	B-:maj
16cc	try	.	.	.	.	.	.	.	.
8.dd	_	.	.	.	.	.	.	.	.
32a	try	.	.	.	.	.	.	.	.
32g	_	.	.	.	.	.	.	.	.
8f	_	.	.	.	.	.	.	.	.
16f	to	.	.	.	.	.	.	.	.
8g	un-	.	.	.	.	.	.	.	.
8g	-der-	.	.	.	.	.	.	.	.
=139	=139	=139	=139	=139	=139	=139	=139	=139	=139
2g	-stand	1r	.	1CM	.	voice	F	.	C:maj
8r	.	.	.	.	.	.	.	.	.
16g	He's	.	.	.	.	.	.	.	.
16g	a	.	.	.	.	.	.	.	.
8g	ma-	.	.	.	.	.	.	.	.
8g	-gic	.	.	.	.	.	.	.	.
=140	=140	=140	=140	=140	=140	=140	=140	=140	=140
4.b-	man	1r	.	2B-M	newline	voice	F	317.551	B-:maj
4.cc	_	.	.	.	.	.	.	.	.
.	.	.	.	2FM	.	voice	.	.	F:maj
4r	.	.	.	.	.	.	.	.	.
=141	=141	=141	=141	=141	=141	=141	=141	=141	=141
8dd	Oh	1r	.	2B-M	.	voice	.	.	B-:maj
8cc	_	.	.	.	.	.	.	.	.
8b-	_	.	.	.	.	.	.	.	.
16g	_	.	.	.	.	.	.	.	.
[16f	_	.	.	.	.	.	.	.	.
4f]	_	.	.	2FM	.	voice	.	.	F:maj
4r	.	.	.	.	.	.	.	.	.
=142	=142	=142	=142	=142	=142	=142	=142	=142	=142
4.b-	Oh	1r	.	2B-M	.	voice	.	.	B-:maj
[4.cc	_	.	.	.	.	.	.	.	.
.	.	.	.	2FM	.	voice	.	.	F:maj
4cc]	_	.	.	.	.	.	.	.	.
=143	=143	=143	=143	=143	=143	=143	=143	=143	=143
1r	.	1r	.	1Gm	.	guitar	.	.	G:min
r;	.	r;	.	1r;	.	r	.	327.053	N.C.
r;	.	r;	.	1r;	.	r	.	328.542	N.C.
*-	*-	*-	*-	*-	*-	*-	*-	*-	*-
!!!BillboardChartDate: 1976/10/30, 1976/08/07
!!!BillboardPeak: 9, 9
!!!BillboardWeeksOnChart: 23, 23
!!!COC: Heart
!!!EMD: Added measure at the end. -Nat
!!!ENC: Nathaniel Condit-Schultz
!!!EST: Awating manual error checking and editing.
!!!OTL: Magic Man
!!!RDF**chordsym: original McGill chord annotation + (implied pitch class set, with bass pitch in first position)
!!!RDF**harmony: **recip + pitch class of root + harmonic quality
!!!RDF**leadinstrument: original McGill primary instrumentation annotation
!!!RDF**phrase: newline = linebreak in original McGill transcription
!!!RDF**timestamp: McGill audio timestamp in seconds
!!!RDT: 2017/01/12/
!!!SampleActualRank: 10, 73
!!!SampleID#: 215, 800
!!!SampleTargetRank: 12, 71
